src/standard/people/digital-standup.svg

<svg xmlns="http://www.w3.org/2000/svg" viewBox="0 0 36 36">
  <path d="M6 26.62h24a.62.62 0 0 0 .62-.62V11a.62.62 0 0 0-.62-.62h-4a.63.63 0 0 0 0 1.25h3.38v13.75h-6.33a5 5 0 0 0-3-4.48 3.15 3.15 0 1 0-4.14 0 5 5 0 0 0-3 4.48H6.62V11.62H10a.62.62 0 0 0 0-1.24H6a.62.62 0 0 0-.62.62v15a.62.62 0 0 0 .62.62Zm10.09-8.09a1.91 1.91 0 0 1 3.82 0 1.91 1.91 0 0 1-3.82 0ZM18 21.69a3.81 3.81 0 0 1 3.8 3.69h-7.6a3.81 3.81 0 0 1 3.8-3.69Zm14 6.69H4a.62.62 0 0 0 0 1.24h28a.62.62 0 0 0 0-1.24Z"/>
  <path d="M12 12.62h3.74c2.73 2.67 1.8 2.66 4.52 0H24a.62.62 0 0 0 .62-.62V6a.62.62 0 0 0-.62-.62H12a.62.62 0 0 0-.62.62v6a.62.62 0 0 0 .62.62Zm.62-6h10.76v4.76H20a.59.59 0 0 0-.44.18L18 13.12l-1.56-1.56a.59.59 0 0 0-.44-.18h-3.38Z"/>
</svg>

<svg id="b0103d5d-3335-496e-a537-a3e3b812e4d0" data-name="Icon" xmlns="http://www.w3.org/2000/svg" viewBox="0 0 36 36">
  <g>
    <path d="M6,26.62H30a.62.62,0,0,0,.62-.62V11a.62.62,0,0,0-.62-.62H26a.63.63,0,0,0,0,1.25h3.38V25.38H23.05a5,5,0,0,0-3-4.48,3.15,3.15,0,1,0-4.14,0,5,5,0,0,0-3,4.48H6.62V11.62H10a.62.62,0,0,0,0-1.24H6a.62.62,0,0,0-.62.62V26A.62.62,0,0,0,6,26.62Zm10.09-8.09a1.91,1.91,0,0,1,3.82,0A1.91,1.91,0,0,1,16.09,18.53ZM18,21.69a3.81,3.81,0,0,1,3.8,3.69H14.2A3.81,3.81,0,0,1,18,21.69Z"/>
    <path d="M32,28.38H4a.62.62,0,0,0,0,1.24H32A.62.62,0,0,0,32,28.38Z"/>
    <path d="M12,12.62h3.74c2.73,2.67,1.8,2.66,4.52,0H24a.62.62,0,0,0,.62-.62V6A.62.62,0,0,0,24,5.38H12a.62.62,0,0,0-.62.62v6A.62.62,0,0,0,12,12.62Zm.62-6H23.38v4.76H20a.59.59,0,0,0-.44.18L18,13.12l-1.56-1.56a.59.59,0,0,0-.44-.18H12.62Z"/>
  </g>
</svg>
